!!!OTL: Der heimkehrende Soldat Es kehrt ein Soldat aus dem Kriege zurueck, hurra!
!!!ARE: Europa, Osteuropa, Ungarn
!!!YOR: 5, S. 160
!!    1940 gedruckt in Budapest
!!!SCT: Q0103L
!!!YEM: Copyright 1995, estate of Helmut Schaffrath.
**kern
*ICvox
*Ivox
*M4/4
*k[f#]
*G:
{4d
=1
4g
8g
8g
4g
8g
8b
=2
4dd
8a
8a
4a
4dd
=3
4b
2r}
{8.dd
16cc
=4
8b
8b
8b
8b
8b
8cc
8dd
8ee
=5
4.dd
8b
8cc
8r}
{8cc
8b
=6
4a
4a
4a
4ee
=7
4ee
8dd
8gg
4dd}
{4cc
=8
4b
4dd
4dd
4cc
=9
4b
2r}
==
!!!AGN: Ballade, Ehe, Betrug
!! Anhaengsel; letzte Zeile = Refrain (?).
!!!ONB: ESAC (Essen Associative Code) Database: BALLADE
!!!AMT: simple quadruple
!!!AIN: vox
!!!EED: Helmut Schaffrath
!!!EEV: 1.0
*-
